X: 12359
T: Falmouth Packet, The
R: reel
M: 4/4
K: Amixolydian
|:AB|c2Ac B2FA|DEED EFGA|BdcA AB (3BBB|BAGA A2AB|
c2Ac B2FA|DEED EFGA|BdcA AB (3BBB|BAGA A2:|
|:(3ABc|d4 c3A|B2Bd BAFA|DFAF ABAF|dBAF E2 (3ABc|
d4 c3A|B2Bd BAFA|DFAF dBAF|EGFE D2:|

